X: 1
T:Morison's Bush
M:4/4
L:1/4
Q:120
C:Charles Jemmett
S:Manuscript
R:March
K:D
A|"D" DD d c/2B/2|AF"Bm"ED|"Em"E>F "A7"G>A|"D"BAFA|
DD d c/2B/2|AFEF|"Em"E F/2G/2 "A7"Ac|"D"d3:|!
A|"D"d>AFD|"A7"e>dcA|"Bm"f>edf|"E7"e/2f/2e/2d/2"A7"cA|
"D"d>AFD|"A"e>dcA|"A7"g>ecA|"D"d3A|!
d>AFD|"A7"e>dcA|"Bm"f>edf|"E7"e/2f/2e/2d/2 "A7"cA|
"D"DDd c/2B/2|AFEF|"Em"E F/2G/2 "A7"Ac|"D"d3|
